X:1
T:Saving Grace
T:Saving Grace
T: Daniel Brink Towner
T:Julia Harriet Johnston, 1901
T:Public Domain Courtesy of the Cyber Hymnal™
T:Public Domain Courtesy of the Cyber Hymnal™
C:Daniel Brink Towner
Z:Public Domain
Z:Courtesy of the Cyber Hymnal™
%%score ( 1 2 ) ( 3 4 )
L:1/8
Q:1/4=108
M:4/4
K:G
V:1 treble 
V:2 treble 
V:3 bass 
V:4 bass 
V:1
 [GB]2 [GA][GB] D3 [B,D] | [CE]2 [Ec]2 [DB]3 [DB] | [^CA]2 [CE]2 [DF][DF][CG][CG] | %3
w: 1.~O gold- en day, when|light shall break, And|dawn’s bright glor- ies shall un-|
w: 2.~Life’s up- ward way, a|nar- row path, Leads|on to that fair dwell- ing|
w: 3.~I dim- ly see my|jour- ney’s end, But|well I know who guid- eth|
 ([CA]4 [^C^A]4) | [GB]2 [GA][GB] D3 [B,D] | [CE]2 [Ec]2 [DB]3 [GB] | %6
w: fold, *|When He who knows the|path I take Shall|
w: place, *|Where, safe from sin, and|storm, and wrath, They|
w: me. *|I fol- low Him, that|won- drous friend, Whose|
 [GB][FA][FA][FA] [GB]2 [G^c]2 | d4- d4 | [Gd]2 [^Ge][GB] [Ac]3 [Ac] | [Ad]2 [FA]2 [GB]3 [DB] | %10
w: ope for me the gates of|gold! *|Earth’s lit- tle while will|soon be past, My|
w: live who trust re- deem- ing|grace. *|Sing, sing, my heart, a-|long the way, The|
w: match- less love is full and|free. *|And when with Him I|en- ter in, And|
 [^DB]2 [DF]2 [EG]3 [EG] | [EA]2 [^CE]2 [DF]2 (ED) | [B,D]2 [DG]2 [GB]3 [=Fd] | %13
w: pil- grim song will|soon be o’er, The *|grace that saves shall|
w: grace that saves will|keep and guide Till *|breaks the glor- ious|
w: all the way look|back to trace, The *|con- queror’s palm I|
 [Ed]2 [Ec]2 [CE]3 [EA] | [DG][DG][DF][DG] [GB]3 [DA] | [DG]6 z2 ||"^Refrain" [Bd] | %17
w: time out- last, And|be my theme on yon- der|shore.||
w: crown- ing day, And|I shall cross to yon- der|side.|Then|
w: then shall win, Through|Christ and His re- deem- ing|grace.||
 [Bd]2 [Ac]2 [FA]3 [Fe] | [Ge]2 [Gd]2 [GB]3 [Gd] | [Fd]2 [Ac]2 [FA]3 [Fe] | %20
w: |||
w: I shall know as|I am known, And|stand com- plete be-|
w: |||
 [Ge]2 [Gd]2 [GB]3 [B,D] | [B,D]2 [DG]2 [GB]3 [=Fd] | [Ed]2 [Ec]2 [CE]3 [EA] | %23
w: |||
w: fore the throne; Then|I shall see my|Sav- ior’s face, And|
w: |||
 [DG][DG][DF][DG] [FB]3 [FA] | !fermata![DG]6 z2 |] %25
w: ||
w: all my song be sav- ing|grace.|
w: ||
V:2
 x4 D3 x | x8 | x8 | x8 | x4 D3 x | x8 | x8 | (F2 G2 A2 c2) | x8 | x8 | x8 | x6 =C2 | x8 | x8 | %14
 x8 | x8 || x | x8 | x8 | x8 | x8 | x8 | x8 | x8 | x8 |] %25
V:3
 [G,D]2 [G,C][G,D] [G,B,]3 [G,,G,] | [C,G,]2 [C,G,]2 G,3 [G,,G,] | %2
 [A,,E,]2 [A,,G,]2 [A,,A,][A,,A,][A,,G,][A,,G,] | F,4 [E,G,]4 | [G,D]2 [G,C][G,D] [G,B,]3 [G,,G,] | %5
 [C,G,]2 [C,G,]2 G,3 [G,D] | [D,D][D,D][D,D][D,D] D2 [E,A,]2 | A,4- [F,A,]4 | %8
 [G,B,]2 [E,B,][^G,E] [A,E]3 [=G,E] | [F,D]2 [D,D]2 [G,D]3 [G,,G,] | %10
 [B,,F,]2 [B,,B,]2 [E,B,]3 [D,B,] | [^C,A,]2 [A,,A,]2 [D,A,]2 (G,F,) | %12
 [G,,G,]2 [G,B,]2 [G,D]3 [B,,G,] | [C,G,]2 [C,G,]2 [A,,A,]3 [C,C] | %14
 [D,B,][D,B,][D,A,][D,B,] [D,D]3 [D,C] | [G,B,]6 z2 || [G,D] | [D,D]2 [D,D]2 [D,D]3 [D,C] | %18
 [G,C]2 [G,B,]2 [G,D]3 [G,B,] | [D,A,]2 [D,D]2 [D,D]3 [D,C] | [G,C]2 [G,B,]2 [G,D]3 G, | %21
 G,2 [G,B,]2 [G,D]3 [B,,G,] | [C,G,]2 [C,G,]2 [A,,A,]3 [C,C] | %23
 [D,B,][D,B,][D,A,][D,B,] [D,D]3 [D,C] | !fermata![G,B,]6 z2 |] %25
V:4
 x8 | x4 G,3 x | x8 | D,2 ^D,2 x4 | x8 | x8 | x4 (G,F,) x2 | D,2 E,2 x4 | x8 | x8 | x8 | x6 D,2 | %12
 x8 | x8 | x8 | x8 || x | x8 | x8 | x8 | x7 G, | G,2 x6 | x8 | x8 | x8 |] %25

